tipitek/img/advantage-icon-5.svg

<svg width="56" height="56" viewBox="0 0 56 56" fill="none" xmlns="http://www.w3.org/2000/svg">
<g clip-path="url(#clip0_596_5179)">
<path d="M45.7102 8.61023H35.8554C34.9143 8.61023 34.1514 9.37312 34.1514 10.3142V15.243C34.1514 16.1841 34.9143 16.9469 35.8554 16.9469C36.405 16.9469 36.8505 17.3925 36.8505 17.9421V20.9902C36.8505 21.3771 37.3601 21.5182 37.5592 21.1863L39.8115 17.4303C39.8999 17.2829 40.025 17.1609 40.1746 17.0762C40.3241 16.9915 40.4931 16.947 40.665 16.9469H45.7101C46.6512 16.9469 47.4141 16.1841 47.4141 15.243V10.3143C47.4142 9.3732 46.6513 8.61023 45.7102 8.61023Z" fill="#B3E59F"/>
<path d="M45.7103 8.61023H40.6062C41.5473 8.61023 42.3102 9.37312 42.3102 10.3142V15.243C42.3102 16.1841 41.5473 16.9469 40.6062 16.9469H35.8555C36.4051 16.9469 36.8506 17.3925 36.8506 17.9421V20.9901C36.8506 21.377 37.3602 21.5181 37.5593 21.1862L39.8116 17.4302C39.9 17.2828 40.0251 17.1608 40.1747 17.0761C40.3242 16.9914 40.4932 16.9469 40.6651 16.9469H45.7103C46.6514 16.9469 47.4143 16.184 47.4143 15.2429V10.3143C47.4143 9.3732 46.6514 8.61023 45.7103 8.61023Z" fill="#95D6A4"/>
<path d="M28.3269 32.4517C27.5236 32.2971 26.9431 31.5942 26.9431 30.7762V26.0898H20.42V30.7762C20.42 31.6119 19.817 32.3017 19.0361 32.4516C19.0361 32.4516 28.7679 32.5366 28.3269 32.4517Z" fill="#FFDDCE"/>
<path d="M30.1353 32.7999C29.6708 32.7105 17.2273 32.7999 17.2273 32.7999C12.4833 33.7129 9.05469 37.8642 9.05469 42.6953V46.0186C9.05469 46.7724 9.66578 47.3835 10.4196 47.3835H36.943C37.6968 47.3835 38.3079 46.7724 38.3079 46.0186V42.6953C38.308 37.8642 34.8794 33.7129 30.1353 32.7999Z" fill="#FFD064"/>
<path d="M35.5816 45.8017H11.7814L11.1502 34.1712C11.0942 33.1411 11.9145 32.2751 12.9461 32.2751H34.417C35.4487 32.2751 36.2689 33.1411 36.213 34.1712L35.5816 45.8017Z" fill="#EAF2FF"/>
<path d="M34.4166 32.2751H29.3125C30.3441 32.2751 31.1644 33.1411 31.1084 34.1712L30.4771 45.8017H35.5812L36.2125 34.1712C36.2685 33.1411 35.4483 32.2751 34.4166 32.2751Z" fill="#DBE8F9"/>
<path d="M37.517 44.8698H9.84586C9.15 44.8698 8.58594 45.4338 8.58594 46.1297C8.58594 46.8255 9.15 47.3896 9.84586 47.3896H37.517C38.2129 47.3896 38.777 46.8255 38.777 46.1297C38.7769 45.4338 38.2128 44.8698 37.517 44.8698Z" fill="#9BC4F9"/>
<path d="M37.5167 44.8698H33.6356V46.1297C33.6356 46.8256 33.0716 47.3896 32.3757 47.3896H37.5166C38.2125 47.3896 38.7766 46.8256 38.7766 46.1297C38.7766 45.4339 38.2125 44.8698 37.5167 44.8698ZM25.2532 44.8698C25.2532 43.8373 25.6401 42.8446 26.3309 42.0773L26.3463 42.06C26.9113 41.4281 27.2547 40.5939 27.2547 39.6795C27.2547 38.3469 26.5252 37.1847 25.4439 36.5703C25.2387 36.4537 24.9839 36.6003 24.9839 36.8363V39.4949C24.9839 39.9405 24.6227 40.3018 24.177 40.3018H23.1851C22.7395 40.3018 22.3782 39.9405 22.3782 39.4949V36.8363C22.3782 36.6003 22.1234 36.4537 21.9182 36.5703C20.8369 37.1847 20.1074 38.3468 20.1074 39.6795C20.1074 40.5939 20.4509 41.428 21.0159 42.06L21.0313 42.0773C21.7221 42.8446 22.109 43.8373 22.109 44.8698H25.2532Z" fill="#7FB2F9"/>
<path d="M30.5026 19.8912L30.0668 19.8931L30.0594 18.1366C30.0441 14.4565 27.0072 11.9069 23.6401 11.8832C20.2877 11.9354 17.2578 14.4971 17.2731 18.1912L17.2783 19.4297L17.2804 19.9478L16.8446 19.9497C16.2055 19.9524 15.6897 20.479 15.6924 21.1258L15.6978 22.4236C15.7004 23.0704 16.2207 23.5926 16.8597 23.5899L17.2973 23.588C17.3404 25.2876 18.0529 26.9207 19.3324 28.0263C20.3625 28.9165 21.8084 29.6911 23.7143 29.7044C25.62 29.6747 27.0594 28.8879 28.082 27.989C29.3522 26.8724 30.0511 25.2334 30.08 23.5335L30.5177 23.5316C31.1568 23.5289 31.6726 23.0023 31.6699 22.3555L31.6645 21.0576C31.6618 20.4107 31.1416 19.8885 30.5026 19.8912Z" fill="#FFDDCE"/>
<path d="M31.6646 21.0575C31.662 20.4107 31.1417 19.8885 30.5027 19.8912L30.0668 19.8931L30.0595 18.1366C30.0473 15.2022 28.1134 12.9883 25.6234 12.1987C26.154 13.0962 26.466 14.1525 26.4709 15.3241L26.4917 23.5333C26.4627 25.2333 25.7639 26.8723 24.4937 27.9888C23.8151 28.5853 22.9527 29.1322 21.8926 29.4415C22.4456 29.6029 23.0522 29.6997 23.7145 29.7044C25.6202 29.6747 27.0596 28.8878 28.0822 27.9889C29.3524 26.8723 30.0513 25.2333 30.0802 23.5334L30.5179 23.5315C31.157 23.5288 31.6728 23.0022 31.6701 22.3554L31.6646 21.0575Z" fill="#FFCBBE"/>
<path d="M30.0759 18.8335V23.6639H31.3587C32.078 23.6639 32.6612 23.0808 32.6612 22.3615V20.1359C32.6612 19.4166 32.078 18.8335 31.3587 18.8335H30.0759ZM17.2864 18.8335V23.6639H16.0036C15.2843 23.6639 14.7012 23.0808 14.7012 22.3615V20.1359C14.7012 19.4166 15.2843 18.8335 16.0036 18.8335H17.2864Z" fill="#9BC4F9"/>
<path d="M29.6461 13.4161H29.5804C29.4058 13.4161 29.2383 13.3467 29.1148 13.2233C28.9914 13.0998 28.922 12.9323 28.922 12.7577C28.922 11.6809 28.0491 10.808 26.9723 10.808H20.7669C18.0054 10.808 15.7666 13.0467 15.7666 15.8083V19.1128C15.7666 19.3496 15.8403 19.5806 15.9775 19.7736C16.1147 19.9666 16.3085 20.1121 16.5321 20.19L17.7639 20.6188C18.1944 20.7688 18.6439 20.4487 18.6432 19.9928L18.6406 17.6627C18.6359 16.5295 19.5396 15.6069 20.6591 15.6021L20.6835 15.602C21.0247 15.6006 21.364 15.6532 21.6888 15.7577C22.2624 15.942 22.8568 16.0538 23.4593 16.0513H23.9031C24.5056 16.0538 25.1 15.9421 25.6736 15.7577C25.9984 15.6532 26.3377 15.6006 26.6789 15.602L26.7032 15.6021C27.8228 15.607 28.7265 16.5295 28.7218 17.6627L28.7195 19.993C28.7189 20.4488 29.1685 20.7688 29.5989 20.6188L30.8303 20.19C31.0539 20.1121 31.2477 19.9666 31.3849 19.7736C31.5221 19.5805 31.5957 19.3496 31.5957 19.1128V15.3657C31.5957 14.289 30.7229 13.4161 29.6461 13.4161Z" fill="#756E78"/>
<path d="M29.6466 13.4161H29.5809C29.4062 13.4161 29.2388 13.3467 29.1153 13.2233C28.9918 13.0998 28.9224 12.9323 28.9224 12.7577C28.9224 11.6809 28.0495 10.808 26.9727 10.808H24.498C25.6915 11.9094 26.4635 13.4736 26.4712 15.3241L26.472 15.6084C26.541 15.604 26.6101 15.6019 26.6793 15.602L26.7037 15.6021C27.8232 15.607 28.727 16.5295 28.7222 17.6627L28.7199 19.993C28.7193 20.4488 29.1689 20.7688 29.5994 20.6188L30.8307 20.19C31.0543 20.1121 31.2482 19.9666 31.3853 19.7736C31.5225 19.5805 31.5962 19.3496 31.5962 19.1128V15.3657C31.5962 14.289 30.7233 13.4161 29.6466 13.4161Z" fill="#665E66"/>
<path d="M28.1035 27.2246H26.633C26.072 27.2246 25.6172 26.7698 25.6172 26.2087C25.6172 25.6477 26.072 25.1929 26.633 25.1929H28.1035C28.6645 25.1929 29.1194 25.6476 29.1194 26.2087C29.1194 26.7698 28.6645 27.2246 28.1035 27.2246Z" fill="#DB636E"/>
<path d="M44.7905 10.9103H39.678C39.5226 10.9103 39.3735 10.972 39.2636 11.0819C39.1538 11.1918 39.092 11.3408 39.092 11.4962C39.092 11.6516 39.1538 11.8007 39.2636 11.9105C39.3735 12.0204 39.5226 12.0822 39.678 12.0822H44.7905C44.9459 12.0822 45.095 12.0204 45.2049 11.9105C45.3148 11.8007 45.3765 11.6516 45.3765 11.4962C45.3765 11.3408 45.3148 11.1918 45.2049 11.0819C45.095 10.972 44.9459 10.9103 44.7905 10.9103ZM36.7747 12.0822H37.3979C37.5533 12.0822 37.7023 12.0204 37.8122 11.9105C37.9221 11.8007 37.9838 11.6516 37.9838 11.4962C37.9838 11.3408 37.9221 11.1918 37.8122 11.0819C37.7023 10.972 37.5533 10.9103 37.3979 10.9103H36.7747C36.6193 10.9103 36.4703 10.972 36.3604 11.0819C36.2505 11.1918 36.1888 11.3408 36.1888 11.4962C36.1888 11.6516 36.2505 11.8007 36.3604 11.9105C36.4703 12.0204 36.6193 12.0822 36.7747 12.0822ZM36.7747 14.8347H44.7906C44.946 14.8347 45.0951 14.7729 45.2049 14.663C45.3148 14.5532 45.3766 14.4041 45.3766 14.2487C45.3766 14.0933 45.3148 13.9443 45.2049 13.8344C45.0951 13.7245 44.946 13.6628 44.7906 13.6628H36.7747C36.6193 13.6628 36.4703 13.7245 36.3604 13.8344C36.2505 13.9443 36.1888 14.0933 36.1888 14.2487C36.1888 14.4041 36.2505 14.5532 36.3604 14.663C36.4703 14.7729 36.6193 14.8347 36.7747 14.8347ZM38.894 42.6953C38.894 40.3547 38.1126 38.0586 36.6893 36.2033L36.7979 34.2029C36.8718 32.8412 35.7912 31.6892 34.4168 31.6892H28.0029C27.8565 31.5861 27.7371 31.4494 27.6546 31.2905C27.5721 31.1316 27.529 30.9552 27.5288 30.7762V29.1402C28.5233 28.4971 29.2215 27.7636 29.7344 26.8908H30.8683C32.1801 26.8908 33.2473 25.8236 33.2473 24.5118V20.1359C33.2473 19.3979 32.8203 18.7454 32.1818 18.4368V15.3657C32.1818 13.9675 31.0444 12.83 29.6462 12.83H29.5805C29.5613 12.83 29.5429 12.8224 29.5293 12.8088C29.5157 12.7952 29.5081 12.7768 29.508 12.7575C29.508 11.3594 28.3705 10.2219 26.9724 10.2219H20.767C17.6868 10.2219 15.1808 12.7279 15.1808 15.8082V18.4367C14.5423 18.7454 14.1153 19.3978 14.1153 20.1358V22.3613C14.1153 23.4025 14.9624 24.2497 16.0037 24.2497H16.7601C16.9559 25.9056 17.7327 27.4179 18.9494 28.4693C19.2286 28.7107 19.5241 28.9326 19.8337 29.1333V30.7761C19.8337 31.1408 19.6541 31.4796 19.3577 31.6891H12.946C11.5823 31.6891 10.4905 32.8305 10.565 34.2029L10.6736 36.2033C9.25023 38.0586 8.46883 40.3547 8.46883 42.6953V44.9022C8.1775 45.2287 8 45.6588 8 46.1297C8 47.1475 8.82805 47.9755 9.84586 47.9755H37.517C38.5348 47.9755 39.3628 47.1475 39.3628 46.1297C39.3628 45.6588 39.1853 45.2287 38.894 44.9023V42.6953ZM37.7221 42.6953V44.2955C37.654 44.2878 37.5855 44.284 37.517 44.2839H36.2507L36.5814 38.1909C37.323 39.5683 37.7221 41.1201 37.7221 42.6953ZM32.0153 19.8498C32.0549 19.94 32.0755 20.0375 32.0755 20.136V22.3615C32.0755 22.7565 31.7541 23.0779 31.3591 23.0779H30.6623V20.8691L31.0234 20.7433C31.4701 20.5877 31.8214 20.2596 32.0153 19.8498ZM28.1034 26.6387H26.6329C26.3959 26.6387 26.203 26.4459 26.203 26.2089C26.203 25.9718 26.3959 25.779 26.6329 25.779H28.1034C28.3404 25.779 28.5332 25.9718 28.5332 26.2089C28.5332 26.4459 28.3404 26.6387 28.1034 26.6387ZM30.8684 25.719H30.2762C30.4425 25.2432 30.5562 24.7505 30.6152 24.2498H31.3591C31.6126 24.2498 31.8545 24.1993 32.0755 24.1083V24.512C32.0755 25.1775 31.534 25.719 30.8684 25.719ZM16.3528 15.8083C16.3528 13.3743 18.3331 11.394 20.7672 11.394H26.9726C27.7245 11.394 28.3363 12.0058 28.3363 12.7577C28.3363 13.4439 28.8946 14.0021 29.5807 14.0021H29.6464C30.3984 14.0021 31.0101 14.6139 31.0101 15.3658V19.1129C31.01 19.2281 30.9741 19.3403 30.9074 19.4342C30.8407 19.528 30.7465 19.5988 30.6378 19.6368L29.4065 20.0656C29.395 20.0697 29.3828 20.0709 29.3707 20.0692C29.3587 20.0676 29.3472 20.063 29.3373 20.0559C29.3274 20.0489 29.3194 20.0395 29.3139 20.0287C29.3084 20.0178 29.3056 20.0058 29.3057 19.9936L29.308 17.6652C29.3151 15.9659 27.7239 14.4839 25.4945 15.2C24.3733 15.5603 22.9857 15.559 21.8682 15.2C19.662 14.4909 18.0477 15.9466 18.0548 17.6634L18.0575 19.9938C18.0576 20.0059 18.0548 20.0179 18.0493 20.0288C18.0438 20.0396 18.0357 20.0489 18.0258 20.056C18.0159 20.063 18.0045 20.0676 17.9925 20.0692C17.9804 20.0709 17.9682 20.0697 17.9567 20.0656L16.725 19.6367C16.6163 19.5988 16.5221 19.528 16.4554 19.4341C16.3887 19.3403 16.3528 19.228 16.3527 19.1129L16.3528 15.8083ZM15.2873 22.3615V20.1359C15.2874 20.0374 15.308 19.9399 15.3476 19.8497C15.5416 20.2596 15.8929 20.5877 16.3398 20.7433L16.7008 20.869V23.0779H16.0039C15.6087 23.0779 15.2873 22.7565 15.2873 22.3615ZM17.8834 23.573C17.8639 22.8027 17.8759 21.985 17.8726 21.2365C17.9087 21.2396 17.9448 21.2414 17.981 21.2414C18.6777 21.2414 19.2305 20.6751 19.2294 19.9921L19.2266 17.6602C19.2227 16.7088 20.0761 15.8548 21.5097 16.3156C22.8684 16.7522 24.4988 16.7508 25.853 16.3156C27.2189 15.8768 28.1403 16.6493 28.1361 17.6622L28.1338 19.9922C28.1329 20.7185 28.7537 21.3004 29.4902 21.2365V23.6204C29.4734 24.119 29.3922 24.6133 29.2484 25.0911C28.9574 24.7929 28.5519 24.6071 28.1034 24.6071H26.6329C25.7497 24.6071 25.0311 25.3256 25.0311 26.2088C25.0311 27.092 25.7497 27.8105 26.6329 27.8105H27.3773C26.2951 28.6553 25.0644 29.0958 23.7121 29.1182C20.754 29.0945 17.968 26.9091 17.8834 23.573ZM21.0059 30.7763V29.7511C21.8528 30.1018 22.7563 30.2835 23.7105 30.2902H23.7147L23.7238 30.2901C24.6528 30.2757 25.5323 30.0957 26.3572 29.7558V30.7762C26.3572 31.0961 26.4241 31.4058 26.5474 31.6892H20.8149C20.9408 31.4013 21.0058 31.0905 21.0059 30.7763ZM10.7814 38.1909L10.8739 39.8957C10.8915 40.2189 11.1683 40.4674 11.4907 40.449C11.6459 40.4406 11.7914 40.3709 11.8951 40.2552C11.9989 40.1396 12.0525 39.9874 12.0441 39.8322L11.7351 34.1395C11.6975 33.447 12.247 32.8611 12.946 32.8611H34.4169C35.1107 32.8611 35.6656 33.4418 35.6278 34.1395L35.0772 44.284H25.8891C26.001 43.6147 26.3024 42.9851 26.7667 42.4693L26.7835 42.4506C28.5571 40.4664 28.0263 37.3636 25.7337 36.0609C25.1455 35.7267 24.3984 36.1435 24.3984 36.8364V39.495C24.3983 39.5536 24.375 39.6097 24.3336 39.6512C24.2921 39.6926 24.2359 39.7159 24.1773 39.7159H23.1855C23.1269 39.7158 23.0707 39.6926 23.0293 39.6511C22.9879 39.6097 22.9645 39.5536 22.9645 39.495V36.8364C22.9645 36.1448 22.2185 35.726 21.6291 36.0609C19.33 37.3672 18.8099 40.4711 20.5811 42.4525L20.5961 42.4693C21.0604 42.9851 21.3618 43.6146 21.4738 44.2839H12.2857L12.1917 42.5516C12.1742 42.2285 11.898 41.9804 11.5749 41.9983C11.4197 42.0067 11.2743 42.0764 11.1705 42.192C11.0667 42.3077 11.0132 42.4599 11.0216 42.615L11.1121 44.2839H9.84586C9.77648 44.2839 9.70812 44.2881 9.6407 44.2955V42.6953C9.6407 41.1202 10.0398 39.5683 10.7814 38.1909ZM22.6577 44.2839C22.5378 43.3238 22.1263 42.4175 21.4672 41.6854L21.453 41.6695C20.3209 40.4031 20.4726 38.4447 21.7927 37.3647V39.4949C21.7927 40.2629 22.4175 40.8877 23.1855 40.8877H24.1774C24.9455 40.8877 25.5703 40.2629 25.5703 39.4949V37.3647C26.8816 38.4375 27.0496 40.3945 25.9084 41.6711L25.8958 41.6853C25.2366 42.4175 24.8251 43.3238 24.7052 44.2839H22.6577ZM37.517 46.8037H9.84586C9.47422 46.8037 9.17188 46.5014 9.17188 46.1298C9.17188 45.7583 9.47422 45.4558 9.84586 45.4558H37.517C37.8886 45.4558 38.1909 45.7582 38.1909 46.1298C38.1909 46.5015 37.8886 46.8037 37.517 46.8037Z" fill="black"/>
<path d="M47.4143 12.0343C47.5697 12.0343 47.7187 11.9726 47.8286 11.8627C47.9385 11.7528 48.0002 11.6038 48.0002 11.4484V10.3143C48.0002 9.05168 46.9729 8.02441 45.7102 8.02441H35.8554C34.5927 8.02441 33.5654 9.05168 33.5654 10.3143V15.2431C33.5654 16.5058 34.5927 17.5331 35.8554 17.5331C35.9639 17.5332 36.0679 17.5764 36.1447 17.6531C36.2214 17.7298 36.2645 17.8338 36.2646 17.9423V20.9904C36.2646 21.4306 36.5497 21.8053 36.9739 21.9227C37.4007 22.0408 37.8367 21.8632 38.0618 21.4879L40.3141 17.7318C40.3506 17.6714 40.4021 17.6213 40.4636 17.5865C40.5251 17.5517 40.5945 17.5333 40.6651 17.5331H45.7103C46.973 17.5331 48.0003 16.5058 48.0003 15.2431V14.1878C48.0003 14.0324 47.9385 13.8833 47.8287 13.7735C47.7188 13.6636 47.5697 13.6018 47.4143 13.6018C47.2589 13.6018 47.1099 13.6636 47 13.7735C46.8901 13.8833 46.8284 14.0324 46.8284 14.1878V15.2431C46.8284 15.8596 46.3268 16.3612 45.7103 16.3612H40.665C40.1127 16.3612 39.5931 16.6555 39.309 17.1292L37.4364 20.2518V17.9423C37.4364 17.0705 36.7271 16.3612 35.8554 16.3612C35.2388 16.3612 34.7372 15.8596 34.7372 15.2431V10.3143C34.7372 9.69785 35.2388 9.19629 35.8554 9.19629H45.7102C46.3268 9.19629 46.8283 9.69785 46.8283 10.3143V11.4484C46.8283 11.6038 46.8901 11.7528 46.9999 11.8627C47.1098 11.9726 47.2589 12.0343 47.4143 12.0343Z" fill="black"/>
</g>
<defs>
<clipPath id="clip0_596_5179">
<rect width="40" height="40" fill="white" transform="translate(8 8)"/>
</clipPath>
</defs>
</svg>

<svg width="56" height="56" fill="none" xmlns="http://www.w3.org/2000/svg"><g clip-path="url(#clip0_596_5179)"><path d="M45.71 8.61h-9.855c-.94 0-1.704.763-1.704 1.704v4.929c0 .941.763 1.704 1.704 1.704.55 0 .995.445.995.995v3.048c0 .387.51.528.71.196l2.252-3.756a.995.995 0 0 1 .853-.483h5.045c.941 0 1.704-.763 1.704-1.704v-4.929c0-.94-.763-1.704-1.704-1.704z" fill="#B3E59F"/><path d="M45.71 8.61h-5.104c.941 0 1.704.763 1.704 1.704v4.929c0 .941-.763 1.704-1.704 1.704h-4.75c.55 0 .995.445.995.995v3.048c0 .387.51.528.708.196l2.253-3.756a.995.995 0 0 1 .853-.483h5.045c.941 0 1.704-.763 1.704-1.704v-4.929c0-.94-.763-1.704-1.704-1.704z" fill="#95D6A4"/><path d="M28.327 32.452a1.706 1.706 0 0 1-1.384-1.676V26.09H20.42v4.686a1.71 1.71 0 0 1-1.384 1.676s9.732.085 9.29 0z" fill="#FFDDCE"/><path d="M30.135 32.8c-.464-.09-12.908 0-12.908 0a10.077 10.077 0 0 0-8.172 9.895v3.324c0 .753.61 1.364 1.365 1.364h26.523c.754 0 1.365-.61 1.365-1.364v-3.324c0-4.83-3.429-8.982-8.173-9.895z" fill="#FFD064"/><path d="M35.582 45.802h-23.8l-.632-11.63a1.799 1.799 0 0 1 1.796-1.897h21.471c1.032 0 1.852.866 1.796 1.896l-.631 11.63z" fill="#EAF2FF"/><path d="M34.417 32.275h-5.105c1.032 0 1.852.866 1.796 1.896l-.63 11.63h5.103l.631-11.63a1.799 1.799 0 0 0-1.795-1.896z" fill="#DBE8F9"/><path d="M37.517 44.87H9.846a1.26 1.26 0 1 0 0 2.52h27.671a1.26 1.26 0 1 0 0-2.52z" fill="#9BC4F9"/><path d="M37.517 44.87h-3.881v1.26a1.26 1.26 0 0 1-1.26 1.26h5.14a1.26 1.26 0 1 0 0-2.52zm-12.264 0c0-1.033.387-2.025 1.078-2.793l.015-.017a3.572 3.572 0 0 0-.902-5.49.307.307 0 0 0-.46.266v2.659a.807.807 0 0 1-.807.807h-.992a.807.807 0 0 1-.807-.807v-2.659a.307.307 0 0 0-.46-.266 3.572 3.572 0 0 0-.902 5.49l.015.017a4.175 4.175 0 0 1 1.078 2.793h3.144z" fill="#7FB2F9"/><path d="M30.503 19.891l-.436.002-.008-1.756c-.015-3.68-3.052-6.23-6.419-6.254-3.352.052-6.382 2.614-6.367 6.308l.005 1.239.002.518-.435.002c-.64.002-1.155.529-1.153 1.176l.006 1.298a1.164 1.164 0 0 0 1.162 1.166l.437-.002c.043 1.7.756 3.333 2.035 4.438 1.03.89 2.476 1.665 4.382 1.678 1.906-.03 3.345-.816 4.368-1.715 1.27-1.117 1.97-2.756 1.998-4.456l.438-.001a1.164 1.164 0 0 0 1.152-1.177l-.006-1.297a1.164 1.164 0 0 0-1.161-1.167z" fill="#FFDDCE"/><path d="M31.665 21.058a1.164 1.164 0 0 0-1.162-1.167l-.436.002-.008-1.756c-.012-2.935-1.946-5.149-4.436-5.938a6.14 6.14 0 0 1 .848 3.125l.02 8.21c-.028 1.7-.727 3.338-1.997 4.455a6.84 6.84 0 0 1-2.601 1.453 6.64 6.64 0 0 0 1.822.262c1.905-.03 3.345-.816 4.367-1.715 1.27-1.117 1.97-2.756 1.998-4.456l.438-.002a1.164 1.164 0 0 0 1.152-1.176l-.005-1.297z" fill="#FFCBBE"/><path d="M30.076 18.834v4.83h1.283c.719 0 1.302-.583 1.302-1.303v-2.225c0-.72-.583-1.302-1.302-1.302h-1.283zm-12.79 0v4.83h-1.282c-.72 0-1.303-.583-1.303-1.303v-2.225c0-.72.583-1.302 1.303-1.302h1.282z" fill="#9BC4F9"/><path d="M29.646 13.416h-.066a.659.659 0 0 1-.658-.658 1.95 1.95 0 0 0-1.95-1.95h-6.205a5 5 0 0 0-5 5v3.305a1.14 1.14 0 0 0 .765 1.077l1.232.429c.43.15.88-.17.88-.626l-.003-2.33c-.005-1.134.899-2.056 2.018-2.06l.024-.001a3.24 3.24 0 0 1 1.006.156 5.716 5.716 0 0 0 1.77.293h.444a5.713 5.713 0 0 0 1.77-.293 3.24 3.24 0 0 1 1.006-.156h.024c1.12.005 2.024.927 2.019 2.06l-.003 2.331c0 .456.45.776.88.626l1.231-.429a1.141 1.141 0 0 0 .766-1.077v-3.747a1.95 1.95 0 0 0-1.95-1.95z" fill="#756E78"/><path d="M29.647 13.416h-.066a.659.659 0 0 1-.659-.658 1.95 1.95 0 0 0-1.95-1.95h-2.474a6.094 6.094 0 0 1 1.973 4.516l.001.284c.069-.004.138-.006.207-.006h.025c1.12.005 2.023.927 2.018 2.06l-.002 2.331c0 .456.449.776.88.626l1.23-.429a1.14 1.14 0 0 0 .766-1.077v-3.747a1.95 1.95 0 0 0-1.95-1.95z" fill="#665E66"/><path d="M28.104 27.225h-1.471a1.016 1.016 0 0 1 0-2.032h1.47a1.016 1.016 0 1 1 0 2.032z" fill="#DB636E"/><path d="M44.79 10.91h-5.112a.586.586 0 1 0 0 1.172h5.113a.586.586 0 0 0 0-1.172zm-8.015 1.172h.623a.586.586 0 0 0 0-1.172h-.623a.586.586 0 1 0 0 1.172zm0 2.753h8.016a.586.586 0 0 0 0-1.172h-8.016a.586.586 0 1 0 0 1.172zm2.119 27.86c0-2.34-.781-4.636-2.205-6.492l.109-2a2.383 2.383 0 0 0-2.381-2.514h-6.414a1.117 1.117 0 0 1-.474-.913V29.14c.994-.643 1.692-1.376 2.205-2.25h1.134a2.382 2.382 0 0 0 2.38-2.378v-4.376c0-.738-.428-1.39-1.066-1.7v-3.07a2.538 2.538 0 0 0-2.536-2.536h-.066a.072.072 0 0 1-.072-.072 2.539 2.539 0 0 0-2.536-2.536h-6.205a5.593 5.593 0 0 0-5.586 5.586v2.629a1.888 1.888 0 0 0-1.066 1.699v2.225a1.89 1.89 0 0 0 1.889 1.889h.756c.196 1.656.973 3.168 2.19 4.22.279.24.574.463.884.663v1.643c0 .365-.18.704-.476.913h-6.412a2.383 2.383 0 0 0-2.381 2.514l.109 2a10.701 10.701 0 0 0-2.205 6.492v2.207A1.838 1.838 0 0 0 8 46.13c0 1.017.828 1.845 1.846 1.845h27.671a1.848 1.848 0 0 0 1.846-1.845c0-.471-.178-.901-.469-1.228v-2.207zm-1.172 0v1.6a1.85 1.85 0 0 0-.205-.011h-1.266l.33-6.093a9.521 9.521 0 0 1 1.141 4.504zM32.015 19.85c.04.09.06.188.06.286v2.226a.717.717 0 0 1-.716.716h-.697v-2.209l.361-.126c.447-.155.798-.483.992-.893zm-3.912 6.789h-1.47a.43.43 0 0 1 0-.86h1.47a.43.43 0 0 1 0 .86zm2.765-.92h-.592a6.9 6.9 0 0 0 .34-1.47h.743c.254 0 .495-.05.716-.14v.403c0 .665-.541 1.207-1.207 1.207zm-14.515-9.91a4.42 4.42 0 0 1 4.414-4.415h6.206c.752 0 1.363.612 1.363 1.364 0 .686.559 1.244 1.245 1.244h.065c.752 0 1.364.612 1.364 1.364v3.747a.556.556 0 0 1-.372.524l-1.232.429a.075.075 0 0 1-.092-.037.076.076 0 0 1-.008-.035l.002-2.329c.007-1.7-1.584-3.181-3.814-2.465-1.12.36-2.508.359-3.626 0-2.206-.71-3.82.747-3.813 2.463l.003 2.33a.076.076 0 0 1-.032.063.075.075 0 0 1-.07.01l-1.231-.43a.555.555 0 0 1-.372-.523v-3.305zm-1.066 6.553v-2.226c0-.099.021-.196.06-.286.195.41.546.738.993.893l.36.126v2.209h-.696a.717.717 0 0 1-.717-.716zm2.596 1.211c-.02-.77-.007-1.588-.01-2.337a1.248 1.248 0 0 0 1.357-1.244l-.003-2.332c-.004-.951.85-1.805 2.283-1.344a7.376 7.376 0 0 0 4.343 0c1.366-.44 2.287.333 2.283 1.346l-.002 2.33c-.001.726.62 1.308 1.356 1.244v2.384a5.778 5.778 0 0 1-.242 1.471 1.596 1.596 0 0 0-1.145-.484h-1.47c-.883 0-1.602.719-1.602 1.602 0 .883.719 1.602 1.602 1.602h.744c-1.082.844-2.313 1.285-3.665 1.307-2.958-.023-5.744-2.209-5.829-5.545zm3.123 7.203v-1.025c.847.35 1.75.532 2.704.54H23.724a7.148 7.148 0 0 0 2.633-.535v1.02c0 .32.067.63.19.913h-5.732a2.28 2.28 0 0 0 .19-.913zM10.78 38.191l.093 1.705a.586.586 0 1 0 1.17-.064l-.309-5.693a1.212 1.212 0 0 1 1.211-1.278h21.47c.695 0 1.25.58 1.212 1.279l-.55 10.144h-9.189c.112-.67.413-1.299.878-1.815l.017-.018c1.773-1.985 1.242-5.087-1.05-6.39a.893.893 0 0 0-1.336.775v2.659a.222.222 0 0 1-.22.22h-.992a.221.221 0 0 1-.221-.22v-2.659a.893.893 0 0 0-1.336-.775c-2.299 1.306-2.82 4.41-1.048 6.392l.015.016c.464.516.766 1.146.878 1.815h-9.188l-.094-1.732a.586.586 0 1 0-1.17.063l.09 1.669H9.846c-.07 0-.138.004-.205.011v-1.6c0-1.575.399-3.127 1.14-4.504zm11.877 6.093a4.763 4.763 0 0 0-1.19-2.599l-.015-.016a2.989 2.989 0 0 1 .34-4.304v2.13c0 .768.625 1.393 1.393 1.393h.991c.768 0 1.393-.625 1.393-1.393v-2.13a2.989 2.989 0 0 1 .338 4.306l-.012.014a4.763 4.763 0 0 0-1.19 2.599h-2.048zm14.859 2.52H9.846a.675.675 0 0 1 0-1.348h27.671a.675.675 0 0 1 0 1.348z" fill="#000"/><path d="M47.414 12.034a.586.586 0 0 0 .586-.586v-1.134a2.293 2.293 0 0 0-2.29-2.29h-9.855a2.293 2.293 0 0 0-2.29 2.29v4.93a2.293 2.293 0 0 0 2.29 2.29.41.41 0 0 1 .41.408v3.048c0 .44.285.815.709.933a.958.958 0 0 0 1.088-.435l2.252-3.756a.412.412 0 0 1 .351-.199h5.045a2.293 2.293 0 0 0 2.29-2.29v-1.055a.586.586 0 0 0-1.172 0v1.055a1.12 1.12 0 0 1-1.118 1.118h-5.045a1.59 1.59 0 0 0-1.356.768l-1.873 3.123v-2.31c0-.872-.709-1.58-1.58-1.58a1.12 1.12 0 0 1-1.119-1.119v-4.929a1.12 1.12 0 0 1 1.118-1.118h9.855a1.12 1.12 0 0 1 1.118 1.118v1.134a.586.586 0 0 0 .586.586z" fill="#000"/></g><defs><clipPath id="clip0_596_5179"><path fill="#fff" transform="translate(8 8)" d="M0 0h40v40H0z"/></clipPath></defs></svg>
